X: 1
T: Durang's Harnpipe
C: trad.
R: hornpipe, reel
Z: 2020 John Chambers <jc:trillian.mit.edu>
S: Tunes 'N Stuff with Audrey Knuth
S: https://drive.google.com/drive/folders/1yXGhj24P9IU-sNyqHq_582DajPWJPEqj
M: 4/4
L: 1/8
K: D
|:\
"D"D2FE DEFG | ABdA BAFE | D2FE DEFD | "A"E2EF E2FE |
"D"D2FE DEFG | ABdA BAFE | "A"DFAd fdec | "D"d2[fd][fd] [f4d4] :|
|:\
"D"fgag fedA | Bcdc BAFD | "G"GGBG "D"FGAF | "A"EDEF E2 de |
"D"fefa fedA | Bcdc BAFE | "A"DFAd fdec | "D"d2[fd][fd] [f4d4] :|
